X:1
T:Rock of Ages
T:Rock of Ages
T:Thomas Hastings, 1830
T:Augustus Montague Toplady, 1776
T:Public Domain Courtesy of the Cyber Hymnal™
C:Thomas Hastings, 1830
Z:Public Domain
Z:Courtesy of the Cyber Hymnal™
%%score 1 ( 2 3 )
L:1/8
Q:1/4=145
M:3/2
K:Bb
V:1 treble 
V:2 bass 
V:3 bass 
V:1
 [DF]3 [EG] | [DF]4 [B,D]4 [FB]3 [EG] | [DF]8 [FB]2 [Fc]2 | [Fd]6 [Gc]2 [FB]2 [EA]2 | %4
w: 1.~Rock of|Ag- es, cleft for|me, Let me|hide my- self in|
w: 2.~Not the|la- bor of my|hands Can ful-|fill Thy law’s de-|
w: 3.~No- thing|in my hand I|bring, Simp- ly|to the cross I|
w: 4.~While I|draw this fleet- ing|breath, When mine|eyes shall close in|
 [DB]8 [CA]3 [DB] | [Ec]6 [Ec]2 [EA]2 [EF]2 | [DB]8 [CA]3 [DB] | [Ec]6 [Ec]2 [EA]2 [EF]2 | %8
w: Thee; Let the|wa- ter and the|blood, From Thy|wound- ed side which|
w: mands; Could my|zeal no res- pite|know, Could my|tears for- ev- er|
w: cling; Nak- ed,|come to Thee for|dress; Help- less|look to Thee for|
w: death, When I|soar to worlds un-|known, See Thee|on Thy judg- ment|
 [DB]8 [DF]3 [EG] x12 | [DF]4 [B,D]4 [FB]3 [EG] | [DF]8 [DB]2 [Ec]2 | [Fd]6 [Gc]2 [FB]2 [EA]2 | %12
w: flowed, Be of|sin the dou- ble|cure; Save from|wrath and make me|
w: flow, All for|sin could not a-|tone; Thou must|save, and Thou a-|
w: grace; Foul, I|to the fount- ain|fly; Wash me,|Sav- ior, or I|
w: throne, Rock of|Ag- es, cleft for|me, Let me|hide my- self in|
 [DB]8 |] %13
w: pure.|
w: lone.|
w: die.|
w: Thee.|
V:2
 [B,,B,]3 [B,,B,] | [B,,B,]4 [B,,F,]4 [D,B,]3 [E,B,] | [B,,B,]8 [D,B,]2 [F,A,]2 | %3
 B,6 [E,E]2 [F,D]2 [F,C]2 | [B,,B,]8 F,3 F, | F,6 [F,A,]2 [F,C]2 [F,A,]2 | [B,,B,]8 F,3 [F,B,] | %7
 [F,A,]6 [F,A,]2 [F,C]2 [F,A,]2 | [B,,B,]8 [B,,B,]3 [B,,B,] [B,,B,]4 [B,,F,]4 [D,B,]3 [E,B,] | %9
 [B,,B,]8 [G,B,]2 [F,A,]2 | B,6 [E,E]2 [F,D]2 [F,C]2 | [B,,B,]8 x4 | x8 |] %13
V:3
 x4 | x12 | x12 | B,6 x6 | x8 F,3 F, | F,6 x6 | x8 F,3 x | x12 | x24 | x12 | B,6 x6 | x12 | x8 |] %13

